X:306
T:Montgomery Bell
C:Aubrey Haynie
N:From the CD, "The Man I'm Trying to Be" Transcribed and Transcribed by Mike Stangeland
R:bluegrass
L:1/8
Q:1/4=206
M:4/4
K:C
z8 | z2 [E2C2] CE F2 | "C"[B^F][cG] [cG][cG] c2 =FE | FE cE CE F2 | {^F}Gc GA "Bb"_B=F Ac | 
"C"G2 G2 CE F2 | {^F}Gc Gc G2 =FE | FE CC {^D}"Bb"EG F{D}E | "C"C2 C2 CG, _B,=B, | 
CC C{^D}E CE F2 | {^F}Gc Gc G2 =FE | FE cE CE F2 | {^F}Gc GA "Bb"_B=F Ac | "C"G2 G2 CE F2 | 
{^F}Gc Gc G2 =FE | FE CC {^D}"Bb"EG F{D}E | "C"C2 C2 CG, _B,=B, | C2 C2 C4 | "C"c_B GF ^DE CG, | 
"Bb"_B,G, CG, "C"^DE CE | c_B GF ^DE CG, | "G"_B,C C{^D}E "C"C4 | c_B GF ^DE CG, | 
"Bb"_B,G, CG, "C"^DE CE | c_B GF ^DE CG, | "G"_B,C C{^D}E "C"C2 c2 | z_B GF ^DE CG, | 
"Bb"_B,G, CG, "C"DG, ^D=D | c_B GF ^DE CG, | "G"_B,C C{^D}E "C"C2 c2 | z_B GF ^DE CG, | 
"Bb"_B,G, CG, "C"DG, ^D=D | c_B GF ^DE CG, | "G"_B,C C{^D}E "C"C4 | 


